; generated by PrusaSlicer 2.4.2+arm64 on 2022-07-07 at 16:28:36 UTC


;
;
; 

; external perimeters extrusion width = 0.60mm
; perimeters extrusion width = 0.50mm
; infill extrusion width = 0.50mm
; solid infill extrusion width = 0.50mm
; top infill extrusion width = 0.45mm
; first layer extrusion width = 0.42mm

M73 P0 R36
M73 Q0 S36
M201 X1000 Y1000 Z200 E5000 ; sets maximum accelerations, mm/sec^2
M203 X200 Y200 Z12 E120 ; sets maximum feedrates, mm / sec
M204 P1250 R1250 T1250 ; sets acceleration (P, T) and retract acceleration (R), mm/sec^2
M205 X8.00 Y8.00 Z0.40 E4.50 ; sets the jerk limits, mm/sec
M205 S0 T0 ; sets the minimum extruding and travel feed rate, mm/sec
M107
;TYPE:Custom
M862.3 P "MK3S" ; printer model check
M862.1 P0.4 ; nozzle diameter check
M115 U3.11.0 ; tell printer latest fw version
G90 ; use absolute coordinates
M83 ; extruder relative mode
M104 S215 ; set extruder temp
M140 S60 ; set bed temp
M190 S60 ; wait for bed temp
M109 S215 ; wait for extruder temp
G28 W ; home all without mesh bed level
G80 ; mesh bed leveling
G1 Z0.2 F720
G1 Y-3 F1000 ; go outside print area
G92 E0
G1 X60 E9 F1000 ; intro line
G1 X100 E12.5 F1000 ; intro line
G92 E0
M221 S95

; Don't change E values below. Excessive value can damage the printer.

M907 E538 ; set extruder motor current
G21 ; set units to millimeters
G90 ; use absolute coordinates
M83 ; use relative distances for extrusion
M900 K0.05 ; Filament gcode LA 1.5
M900 K30 ; Filament gcode LA 1.0
M107
;LAYER_CHANGE
;Z:0.2
;HEIGHT:0.2
;BEFORE_LAYER_CHANGE
G92 E0.0
;0.2


G1 E-.8 F2100
G1 Z.4 F720
;AFTER_LAYER_CHANGE
;0.2
G1 X111.515 Y65.693 F10800
G1 Z.2 F720
G1 E.8 F2100
M204 S800
;TYPE:Skirt/Brim
;WIDTH:0.42
G1 F1200
G1 X112.56 Y64.817 E.04278
G1 X113.5 Y64.623 E.03008
G1 X136.5 Y64.623 E.72115
G1 X137.807 Y65.015 E.04278
G1 X138.683 Y66.06 E.04278
G1 X138.877 Y67 E.03008
G1 X138.877 Y143 E2.38293
G1 X138.485 Y144.307 E.04278
G1 X137.44 Y145.183 E.04278
G1 X136.5 Y145.377 E.03008
G1 X113.5 Y145.377 E.72115
G1 X112.193 Y144.985 E.04278
G1 X111.317 Y143.94 E.04278
G1 X111.123 Y143 E.03008
G1 X111.123 Y67 E2.38293
G1 X111.497 Y65.75 E.0409
M204 S1000
; printing object 3x1 DeWalt DCB095 Charger.stl id:0 copy 0
;WIPE_START
G1 F8640
G1 X112.56 Y64.817 E-.32671
G1 X113.5 Y64.623 E-.22155
G1 X114.417 Y64.623 E-.21174
;WIPE_END
G1 E-.04 F2100
G1 Z.6 F720
G1 X119.56 Y97.461 F10800
G1 Z.2 F720
G1 E.8 F2100
M204 S800
;TYPE:Perimeter
G1 F1200
G1 X120.189 Y97.129 E.02229
G1 X120.729 Y96.896 E.01844
G1 X121.278 Y96.702 E.01827
G1 X121.836 Y96.544 E.01818
G1 X122.4 Y96.425 E.01809
G1 X122.968 Y96.343 E.01799
G1 X123.539 Y96.299 E.01796
G1 X123.873 Y96.297 E.01045
G1 X124.664 Y96.323 E.02481
G1 X125.228 Y96.391 E.01783
G1 X125.778 Y96.495 E.01753
G1 X126.316 Y96.634 E.01745
G1 X126.842 Y96.808 E.01735
G1 X127.352 Y97.014 E.01727
G1 X127.845 Y97.253 E.01717
G1 X128.319 Y97.522 E.01708
G1 X128.771 Y97.82 E.01698
G1 X129.201 Y98.145 E.0169
G1 X129.606 Y98.496 E.0168
G1 X129.988 Y98.874 E.01685
G1 X130.48 Y99.448 E.02369
G1 X130.95 Y100.119 E.0257
G1 X131.302 Y100.744 E.02249
G1 X131.64 Y101.509 E.02622
G1 X131.848 Y102.143 E.02092
G1 X132.159 Y103.4 E.04059
G1 X132.269 Y104.179 E.02467
G1 X132.307 Y104.896 E.02253
G1 X132.284 Y105.461 E.01771
G1 X132.24 Y105.906 E.01403
G1 X132.158 Y106.403 E.01581
G1 X132.044 Y106.894 E.01581
G1 X131.93 Y107.27 E.01231
G1 X131.721 Y107.846 E.0192
G1 X131.511 Y108.309 E.01593
G1 X131.274 Y108.753 E.0158
G1 X131.008 Y109.181 E.01581
G1 X130.714 Y109.591 E.01581
G1 X130.394 Y109.981 E.01582
G1 X130.047 Y110.352 E.01592
G1 X129.593 Y110.766 E.01927
G1 X129.291 Y111.014 E.01224
G1 X128.885 Y111.305 E.01567
G1 X128.089 Y111.816 E.02965
G1 X127.651 Y112.069 E.01586
G1 X127.19 Y112.295 E.01612
G1 X126.712 Y112.492 E.01621
G1 X126.219 Y112.658 E.0163
G1 X125.714 Y112.792 E.01639
G1 X125.198 Y112.893 E.01648
G1 X124.674 Y112.96 E.01657
G1 X124.143 Y112.992 E.01667
G1 X123.609 Y112.989 E.01675
G1 X123.073 Y112.951 E.01685
G1 X122.537 Y112.877 E.01694
G1 X122.005 Y112.768 E.01703
G1 X121.479 Y112.622 E.01712
G1 X120.96 Y112.442 E.01721
G1 X120.452 Y112.226 E.01731
G1 X119.957 Y111.976 E.0174
G1 X119.476 Y111.693 E.01749
G1 X119.013 Y111.377 E.01758
G1 X118.572 Y111.031 E.01759
G1 X118.146 Y110.649 E.01794
G1 X117.652 Y110.134 E.02239
G1 X117.376 Y109.807 E.01339
G1 X117.032 Y109.346 E.01804
G1 X116.657 Y108.759 E.02184
G1 X116.433 Y108.355 E.01449
G1 X116.182 Y107.827 E.01831
G1 X115.931 Y107.184 E.02165
G1 X115.787 Y106.663 E.01695
G1 X115.683 Y106.008 E.0208
G1 X115.632 Y105.488 E.0164
G1 X115.612 Y104.9 E.01843
G1 X115.632 Y104.312 E.01844
G1 X115.689 Y103.727 E.01844
G1 X115.785 Y103.147 E.01844
G1 X115.919 Y102.574 E.01844
G1 X116.089 Y102.011 E.01844
G1 X116.297 Y101.461 E.01844
G1 X116.539 Y100.925 E.01844
G1 X116.817 Y100.406 E.01844
G1 X117.127 Y99.907 E.01844
G1 X117.47 Y99.429 E.01844
G1 X117.843 Y98.974 E.01845
G1 X118.245 Y98.545 E.01843
G1 X118.674 Y98.143 E.01844
G1 X119.129 Y97.77 E.01844
G1 X119.511 Y97.496 E.01475
M204 S1000
G1 X119.78 Y97.767 F10800
M204 S800
;TYPE:External perimeter
G1 F1200
G1 X120.351 Y97.47 E.02019
G1 X120.867 Y97.247 E.01761
G1 X121.392 Y97.061 E.01749
G1 X121.926 Y96.91 E.0174
G1 X122.466 Y96.796 E.01731
G1 X123.01 Y96.718 E.01721
G1 X123.555 Y96.676 E.01714
G1 X124.635 Y96.699 E.03386
G1 X125.17 Y96.764 E.01692
G1 X125.695 Y96.863 E.01675
G1 X126.21 Y96.996 E.01667
G1 X126.712 Y97.162 E.01657
G1 X127.199 Y97.359 E.01649
G1 X127.67 Y97.587 E.01639
G1 X128.122 Y97.843 E.0163
G1 X128.554 Y98.128 E.0162
G1 X128.963 Y98.438 E.01612
G1 X129.349 Y98.773 E.01602
G1 X129.712 Y99.132 E.01598
G1 X130.181 Y99.68 E.02263
G1 X130.631 Y100.32 E.02454
G1 X130.965 Y100.913 E.02133
G1 X131.288 Y101.644 E.02507
G1 X131.486 Y102.247 E.01989
G1 X131.788 Y103.471 E.03955
G1 X131.893 Y104.215 E.02355
G1 X131.929 Y104.899 E.02147
M73 Q1 S36
G1 X131.908 Y105.435 E.01682
G1 X131.866 Y105.857 E.01329
G1 X131.788 Y106.33 E.01503
G1 X131.679 Y106.797 E.01504
G1 X131.572 Y107.151 E.01161
M73 P1 R36
G1 X131.372 Y107.704 E.01842
G1 X131.173 Y108.142 E.01508
G1 X130.947 Y108.564 E.01503
G1 X130.694 Y108.972 E.01504
G1 X130.415 Y109.362 E.01504
G1 X130.11 Y109.732 E.01504
G1 X129.781 Y110.083 E.01507
G1 X129.061 Y110.715 E.03002
G1 X128.673 Y110.993 E.01499
G1 X127.893 Y111.494 E.02906
G1 X127.474 Y111.736 E.01518
G1 X127.035 Y111.951 E.01534
G1 X126.58 Y112.139 E.01543
G1 X126.111 Y112.297 E.01552
G1 X125.629 Y112.424 E.01561
G1 X125.138 Y112.52 E.0157
G1 X124.638 Y112.584 E.01579
G1 X124.132 Y112.615 E.01589
G1 X123.623 Y112.612 E.01597
G1 X123.112 Y112.576 E.01607
G1 X122.601 Y112.505 E.01616
G1 X122.094 Y112.401 E.01625
G1 X121.591 Y112.262 E.01634
G1 X121.096 Y112.09 E.01643
G1 X120.611 Y111.884 E.01653
G1 X120.138 Y111.645 E.01662
G1 X119.679 Y111.375 E.01671
G1 X119.236 Y111.073 E.0168
G1 X118.814 Y110.742 E.01681
G1 X118.408 Y110.378 E.0171
G1 X117.932 Y109.881 E.02157
G1 X117.671 Y109.572 E.01267
G1 X117.342 Y109.132 E.01725
G1 X116.981 Y108.566 E.02103
G1 X116.769 Y108.182 E.01375
G1 X116.528 Y107.678 E.01753
G1 X116.289 Y107.065 E.02062
G1 X116.156 Y106.583 E.01567
G1 X116.057 Y105.96 E.01979
G1 X116.008 Y105.463 E.01566
G1 X115.99 Y104.9 E.01766
G1 X116.008 Y104.337 E.01767
G1 X116.064 Y103.776 E.01767
G1 X116.155 Y103.22 E.01766
G1 X116.283 Y102.672 E.01767
G1 X116.447 Y102.132 E.01767
G1 X116.645 Y101.605 E.01767
G1 X116.878 Y101.092 E.01767
G1 X117.143 Y100.595 E.01767
G1 X117.441 Y100.116 E.01767
G1 X117.769 Y99.659 E.01766
G1 X118.127 Y99.223 E.01768
G1 X118.512 Y98.812 E.01766
G1 X118.923 Y98.427 E.01766
G1 X119.358 Y98.069 E.01767
G1 X119.731 Y97.802 E.01437
M204 S1000
G1 X119.774 Y97.367 F10800
;WIPE_START
G1 F8640
G1 X120.351 Y97.47 E-.16243
G1 X120.867 Y97.247 E-.12968
G1 X121.392 Y97.061 E-.12879
G1 X121.926 Y96.91 E-.12813
G1 X122.466 Y96.796 E-.12746
G1 X122.824 Y96.745 E-.08352
;WIPE_END
G1 E-.04 F2100
G1 Z.6 F720
G1 X114.287 Y67.787 F10800
G1 Z.2 F720
G1 E.8 F2100
M204 S800
;TYPE:Perimeter
G1 F1200
G1 X135.713 Y67.787 E.67179
G1 X135.713 Y142.213 E2.33357
G1 X114.287 Y142.213 E.67179
M73 P1 R35
G1 X114.287 Y67.847 E2.33169
M204 S1000
G1 X113.91 Y67.41 F10800
M204 S800
;TYPE:External perimeter
G1 F1200
G1 X136.09 Y67.41 E.69544
G1 X136.09 Y142.59 E2.35722
G1 X113.91 Y142.59 E.69544
G1 X113.91 Y67.47 E2.35533
M204 S1000
G1 X114.274 Y67.576 F10800
;WIPE_START
G1 F8640
G1 X117.201 Y67.461 E-.76
;WIPE_END
G1 E-.04 F2100
G1 Z.6 F720
G1 X134.837 Y67.9 F10800
M73 Q2 S35
G1 Z.2 F720
M73 P2 R35
G1 E.8 F2100
M204 S800
;TYPE:Solid infill
;WIDTH:0.420075
G1 F1200
G1 X135.43 Y68.493 E.02629
G1 X135.43 Y69.026 E.01673
G1 X134.474 Y68.07 E.04242
G1 X133.94 Y68.07 E.01673
G1 X135.43 Y69.56 E.06607
G1 X135.43 Y70.093 E.01673
G1 X133.407 Y68.07 E.08973
G1 X132.874 Y68.07 E.01673
G1 X135.43 Y70.626 E.11339
G1 X135.43 Y71.16 E.01673
G1 X132.34 Y68.07 E.13704
G1 X131.807 Y68.07 E.01673
G1 X135.43 Y71.693 E.1607
G1 X135.43 Y72.227 E.01673
G1 X131.273 Y68.07 E.18435
G1 X130.74 Y68.07 E.01673
G1 X135.43 Y72.76 E.20801
G1 X135.43 Y73.293 E.01673
G1 X130.207 Y68.07 E.23166
G1 X129.673 Y68.07 E.01673
G1 X135.43 Y73.827 E.25532
G1 X135.43 Y74.36 E.01673
G1 X129.14 Y68.07 E.27897
G1 X128.607 Y68.07 E.01673
G1 X135.43 Y74.893 E.30263
G1 X135.43 Y75.427 E.01673
G1 X128.073 Y68.07 E.32629
G1 X127.54 Y68.07 E.01673
G1 X135.43 Y75.96 E.34994
G1 X135.43 Y76.494 E.01673
G1 X127.006 Y68.07 E.3736
G1 X126.473 Y68.07 E.01673
G1 X135.43 Y77.027 E.39725
G1 X135.43 Y77.56 E.01673
G1 X125.94 Y68.07 E.42091
G1 X125.406 Y68.07 E.01673
G1 X135.43 Y78.094 E.44456
G1 X135.43 Y78.627 E.01673
G1 X124.873 Y68.07 E.46822
G1 X124.34 Y68.07 E.01673
G1 X135.43 Y79.16 E.49187
G1 X135.43 Y79.694 E.01673
G1 X123.806 Y68.07 E.51553
G1 X123.273 Y68.07 E.01673
G1 X135.43 Y80.227 E.53919
G1 X135.43 Y80.761 E.01673
G1 X122.739 Y68.07 E.56284
G1 X122.206 Y68.07 E.01673
G1 X135.43 Y81.294 E.5865
G1 X135.43 Y81.827 E.01673
G1 X121.673 Y68.07 E.61015
G1 X121.139 Y68.07 E.01673
G1 X135.43 Y82.361 E.63381
G1 X135.43 Y82.894 E.01673
G1 X120.606 Y68.07 E.65746
G1 X120.072 Y68.07 E.01673
G1 X135.43 Y83.428 E.68112
G1 X135.43 Y83.961 E.01673
G1 X119.539 Y68.07 E.70478
G1 X119.006 Y68.07 E.01673
G1 X135.43 Y84.494 E.72843
G1 X135.43 Y85.028 E.01673
G1 X118.472 Y68.07 E.75209
G1 X117.939 Y68.07 E.01673
G1 X135.43 Y85.561 E.77574
G1 X135.43 Y86.094 E.01673
M73 P3 R35
M73 Q3 S35
G1 X117.406 Y68.07 E.7994
G1 X116.872 Y68.07 E.01673
G1 X135.43 Y86.628 E.82305
G1 X135.43 Y87.161 E.01673
G1 X116.339 Y68.07 E.84671
G1 X115.805 Y68.07 E.01673
G1 X135.43 Y87.695 E.87036
G1 X135.43 Y88.228 E.01673
G1 X115.272 Y68.07 E.89402
G1 X114.739 Y68.07 E.01673
G1 X135.43 Y88.761 E.91768
G1 X135.43 Y89.295 E.01673
G1 X114.57 Y68.434 E.92516
G1 X114.57 Y68.968 E.01673
G1 X135.43 Y89.828 E.92516
G1 X135.43 Y90.361 E.01673
G1 X114.57 Y69.501 E.92516
G1 X114.57 Y70.035 E.01673
G1 X135.43 Y90.895 E.92516
G1 X135.43 Y91.428 E.01673
G1 X114.57 Y70.568 E.92516
G1 X114.57 Y71.101 E.01673
G1 X135.43 Y91.962 E.92516
G1 X135.43 Y92.495 E.01673
G1 X114.57 Y71.635 E.92516
G1 X114.57 Y72.168 E.01673
G1 X135.43 Y93.028 E.92516
G1 X135.43 Y93.562 E.01673
G1 X114.57 Y72.701 E.92516
G1 X114.57 Y73.235 E.01673
M73 P4 R35
M73 Q4 S35
G1 X135.43 Y94.095 E.92516
G1 X135.43 Y94.628 E.01673
M73 P4 R34
G1 X114.57 Y73.768 E.92516
G1 X114.57 Y74.302 E.01673
G1 X135.43 Y95.162 E.92516
G1 X135.43 Y95.695 E.01673
G1 X114.57 Y74.835 E.92516
G1 X114.57 Y75.368 E.01673
G1 X135.43 Y96.229 E.92516
G1 X135.43 Y96.762 E.01673
G1 X114.57 Y75.902 E.92516
G1 X114.57 Y76.435 E.01673
G1 X135.43 Y97.295 E.92516
G1 X135.43 Y97.829 E.01673
G1 X114.57 Y76.968 E.92516
G1 X114.57 Y77.502 E.01673
G1 X135.43 Y98.362 E.92516
G1 X135.43 Y98.895 E.01673
G1 X114.57 Y78.035 E.92516
G1 X114.57 Y78.569 E.01673
G1 X135.43 Y99.429 E.92516
G1 X135.43 Y99.962 E.01673
M73 Q4 S34
G1 X114.57 Y79.102 E.92516
G1 X114.57 Y79.635 E.01673
G1 X135.43 Y100.496 E.92516
G1 X135.43 Y101.029 E.01673
G1 X114.57 Y80.169 E.92516
G1 X114.57 Y80.702 E.01673
M73 P5 R34
G1 X135.43 Y101.562 E.92516
G1 X135.43 Y102.096 E.01673
M73 Q5 S34
G1 X114.57 Y81.235 E.92516
G1 X114.57 Y81.769 E.01673
G1 X135.43 Y102.629 E.92516
G1 X135.43 Y103.162 E.01673
G1 X114.57 Y82.302 E.92516
G1 X114.57 Y82.836 E.01673
G1 X135.43 Y103.696 E.92516
G1 X135.43 Y104.229 E.01673
G1 X131.217 Y100.016 E.18684
G1 X130.703 Y99.274 E.02831
G1 X130.195 Y98.682 E.02448
G1 X129.798 Y98.289 E.01751
G1 X129.379 Y97.925 E.01739
G1 X128.935 Y97.589 E.01749
G1 X128.509 Y97.308 E.01599
G1 X114.57 Y83.369 E.6182
G1 X114.57 Y83.902 E.01673
G1 X127.393 Y96.725 E.56871
G1 X126.939 Y96.542 E.01534
G1 X126.546 Y96.412 E.01298
G1 X114.57 Y84.436 E.53116
G1 X114.57 Y84.969 E.01673
G1 X125.815 Y96.214 E.49873
G1 X125.166 Y96.099 E.02067
G1 X114.57 Y85.503 E.46995
G1 X114.57 Y86.036 E.01673
G1 X124.572 Y96.038 E.4436
G1 X124.027 Y96.026 E.0171
G1 X114.57 Y86.569 E.41942
G1 X114.57 Y87.103 E.01673
G1 X123.486 Y96.019 E.39545
G1 X122.991 Y96.057 E.01557
G1 X114.57 Y87.636 E.37349
G1 X114.57 Y88.169 E.01673
G1 X122.522 Y96.121 E.35267
G1 X122.072 Y96.205 E.01434
G1 X114.57 Y88.703 E.33273
G1 X114.57 Y89.236 E.01673
G1 X121.639 Y96.306 E.31354
G1 X121.223 Y96.423 E.01356
G1 X114.57 Y89.77 E.29509
G1 X114.57 Y90.303 E.01673
G1 X120.828 Y96.561 E.27755
G1 X120.444 Y96.711 E.01291
G1 X114.57 Y90.836 E.26054
G1 X114.57 Y91.37 E.01673
G1 X120.072 Y96.871 E.244
G1 X119.721 Y97.054 E.0124
G1 X114.57 Y91.903 E.22844
G1 X114.57 Y92.436 E.01673
G1 X119.377 Y97.244 E.21321
G1 X119.067 Y97.466 E.01199
G1 X114.57 Y92.97 E.19943
G1 X114.57 Y93.503 E.01673
G1 X118.767 Y97.701 E.18616
G1 X118.475 Y97.942 E.01188
G1 X114.57 Y94.037 E.1732
G1 X114.57 Y94.57 E.01673
G1 X118.2 Y98.2 E.16099
G1 X117.932 Y98.465 E.01183
G1 X114.57 Y95.103 E.14911
G1 X114.57 Y95.637 E.01673
G1 X117.674 Y98.741 E.13767
G1 X117.431 Y99.031 E.01187
G1 X114.57 Y96.17 E.12687
G1 X114.57 Y96.703 E.01673
M73 P6 R34
G1 X117.194 Y99.328 E.11639
G1 X116.972 Y99.639 E.01199
G1 X114.57 Y97.237 E.10652
G1 X114.57 Y97.77 E.01673
G1 X116.761 Y99.961 E.09716
G1 X116.557 Y100.291 E.01216
M73 Q6 S34
G1 X114.57 Y98.304 E.08815
G1 X114.57 Y98.837 E.01673
G1 X116.372 Y100.639 E.07991
G1 X116.196 Y100.997 E.0125
G1 X114.57 Y99.37 E.07213
G1 X114.57 Y99.904 E.01673
G1 X116.031 Y101.364 E.06479
G1 X115.885 Y101.752 E.01299
G1 X114.57 Y100.437 E.05832
G1 X114.57 Y100.97 E.01673
G1 X115.751 Y102.152 E.0524
G1 X115.631 Y102.565 E.01348
G1 X114.57 Y101.504 E.04704
G1 X114.57 Y102.037 E.01673
G1 X115.53 Y102.997 E.04257
G1 X115.449 Y103.449 E.01441
G1 X114.57 Y102.571 E.03897
G1 X114.57 Y103.104 E.01673
G1 X115.386 Y103.92 E.0362
G1 X115.345 Y104.413 E.0155
G1 X114.57 Y103.637 E.0344
G1 X114.57 Y104.171 E.01673
G1 X115.33 Y104.931 E.03373
G1 X115.349 Y105.483 E.0173
G1 X114.57 Y104.704 E.03453
G1 X114.57 Y105.237 E.01673
G1 X115.407 Y106.075 E.03713
G1 X115.508 Y106.708 E.02012
G1 X114.57 Y105.771 E.04158
G1 X114.57 Y106.304 E.01673
G1 X115.741 Y107.475 E.05193
G1 X115.922 Y107.94 E.01564
G1 X116.15 Y108.418 E.0166
G1 X114.4 Y106.668 E.0776
M204 S1000
;WIPE_START
G1 F8640
G1 X116.15 Y108.418 E-.57136
G1 X115.922 Y107.94 E-.12219
G1 X115.818 Y107.672 E-.06645
;WIPE_END
G1 E-.04 F2100
G1 Z.6 F720
G1 X131.438 Y100.77 F10800
G1 Z.2 F720
G1 E.8 F2100
M204 S800
G1 F1200
G1 X135.43 Y104.763 E.17707
G1 X135.43 Y105.296 E.01673
G1 X132.082 Y101.948 E.14848
G1 X132.27 Y102.669 E.02337
G1 X135.43 Y105.829 E.14016
G1 X135.43 Y106.363 E.01673
G1 X132.441 Y103.374 E.13256
G1 X132.529 Y103.995 E.01966
G1 X135.43 Y106.896 E.12869
G1 X135.43 Y107.43 E.01673
G1 X132.573 Y104.572 E.12673
G1 X132.581 Y105.114 E.01699
G1 X135.43 Y107.963 E.12636
G1 X135.43 Y108.496 E.01673
G1 X132.553 Y105.619 E.12761
G1 X132.496 Y106.095 E.01504
G1 X135.43 Y109.03 E.13015
G1 X135.43 Y109.563 E.01673
G1 X132.415 Y106.548 E.13373
G1 X132.313 Y106.98 E.01391
G1 X135.43 Y110.096 E.13823
G1 X135.43 Y110.63 E.01673
G1 X132.188 Y107.388 E.14379
G1 X132.046 Y107.779 E.01306
G1 X135.43 Y111.163 E.15008
G1 X135.43 Y111.697 E.01673
G1 X131.891 Y108.157 E.15698
G1 X131.719 Y108.519 E.01256
G1 X135.43 Y112.23 E.16457
